X:1
T:Regina coeli laetare
T:Adriaen Willaert (c. 1490  - 1562)
T:Regina coeli laetare
T:("I sacri e santi salmi che si cantano a vespro et compieta", 1555)
T:Edición: Byrt Janssen (Granada, enero 2010)
T:Edición: Byrt Janssen (Granada, enero 2010)
C:Adriaen Willaert
C:(c. 1490  - 1562)
Z:Edición: Byrt Janssen (Granada, enero 2010)
%%score [ 1 2 3 4 ]
L:1/8
M:4/2
K:C
V:1 treble nm="SOPRANO" snm="S."
V:2 treble nm="CONTRALTO" snm="A."
V:3 treble-8 transpose=-12 nm="TENOR" snm="T."
V:4 bass nm="BAJO" snm="B."
V:1
 c8 e4 e4 | d8 e4 e4 | e8 d4 c4- | c2 A2 c4 c8 || c8 c4 c4 | e4 e4 d8 | c4 c4 c8 | B4 d6 d2 d4 | %8
w: Re- gi- na|coe- li lae-|ta- re. Al-|* le- lu- ia.|Qui- a quem|me- ru- i-|sti por- ta-|re. Al- le- lu-|
 d16 || d6 d2 e4 e4 | e6 e2 d4 c4 | (c2 e2) e8 d4 | e16 || e8 e4 e4 | e6 e2 e8 | d4 c6 c2 c4 | %16
w: ia.|Re- sur- re- xit|si- cut di- xit.|Al- * le- lu-|ia.|O- ra pro|no- bis De-|um. Al- le- lu-|
 B4 B6 c2 c4 | c16 |] %18
w: ia. Al- le- lu-|ia.|
V:2
 E8 G4 G4 | G8 G4 A4 | G8 (G3 F E2) (A2 | G2) F4 E2 F8 || F8 E4 E4 | G4 A4 F8 | E4 E4 E8 | %7
w: Re- gi- na|coe- li lae-|ta- re. _ _ Al-|* le- lu- ia.|Qui- a quem|me- ru- i-|sti por- ta-|
 D4 z2 D2 (D2 G4) ^F2 | G16 || G6 G2 G4 A4 | G6 E2 F4 E4 | E6 E2 G8 | G16 || G8 A4 c4 | %14
w: re. Al- le- * lu-|ia.|Re- sur- re- xit|si- cut di- xit.|Al- le- lu-|ia.|O- ra pro|
 B6 c2 (A4 G4) | G4 E6 E2 E4 | D8 E6 E2 | (E4 F4) E8 |] %18
w: no- bis De- *|um. Al- le- lu-|ia. Al- le-|lu- * ia.|
V:3
 G8 c4 c4 | B8 c4 c4 | c8 B4 z2 E2- | E2 F2 G4 A8 || A8 G4 G4 | c4 c4 A8 | A4 A4 G8 | G4 B6 B2 A4 | %8
w: Re- gi- na|coe- li lae-|ta- re. Al-|* le- lu- ia.|Qui- a quem|me- ru- i-|sti por- ta-|re. Al- le- lu-|
 B16 || B6 B2 c4 c4 | B6 c2 A4 A4 | A4 (G3 F E2) (c4 B2) | c16 || c8 c4 A4 | G6 E2 c8 | %15
w: ia.|Re- sur- re- xit|si- cut di- xit.|Al- le- * * lu- *|ia.|O- ra pro|no- bis De-|
 B4 G6 A2 G4 | G8 G6 G2 | (G4 A4) G8 |] %18
w: um. Al- le- lu-|ia. Al- le-|lu- * ia.|
V:4
 C8 C4 C4 | G,8 C4 A,4 | C8 G,4 (A,3 B, | C2) D2 C4 F,8 || F,8 C4 C4 | C4 A,4 D8 | A,4 A,4 C8 | %7
w: Re- gi- na|coe- li lae-|ta- re. Al- *|* le- lu- ia.|Qui- a quem|me- ru- is-|si por- ta-|
 G,4 G,6 G,2 D4 | G,16 || G,6 G,2 C4 A,4 | E6 A,2 D4 A,4 | (A,2 C2) C8 G,4 | C16 || C8 A,4 A,4 | %14
w: re. Al- le- lu-|ia.|Re- su- re- xit|si- cut di- xit.|Al- * le- lu-|ia.|O- ra pro-|
 E6 A,2 (A,3 B, C4) | G,4 C6 A,2 C4 | G,8 z4 C4- | C2 C2 F,4 C8 |] %18
w: no- bis De- * *|um. Al- le- lu-|ia. Al-|* le- lu- ia.|

